X: 1011
T: Watson's Blues
C:Bill Monroe
B: jims roots
M:4/4
L:1/8
Q: 1/4=100
K:E
V:1 E4)EE DECE | "B"[B,2E
V:3 !///!B,2 "B"!///!=B,2 !///!=G,^G,A,B, | "E" !///!(E8 | E2)EE EEEE :| [4 !///!B,2 "B"!///!=B,2 !///!=G,^G,A,B, | "E" EGBe gbe'2 |
V:B,E 
[B,E] (3B,CC (3B,CC | B,2[B,E]D E3/E/EE :| [2 !///!B,2 "B"!///!=B,2 !///!A,2 =D^D | "E" !///!(E8| E2)E2 EGBd ||
% abcbook-tune_id 6298c297f6f23b41e8f58909


% abcbook-boost 0
% abcbook-tablature 
% abcbook-transpose 
% abcbook-lastupdated 1654178456693
% abcbook-soundfonts 
% abcbook-repeats 1


